cg/arrow-up.svg

<svg viewBox="0 0 24 24" fill="none" xmlns="http://www.w3.org/2000/svg" height="1em" width="1em">
  <path d="M17.6568 8.96219L16.2393 10.3731L12.9843 7.10285L12.9706 20.7079L10.9706 20.7059L10.9843 7.13806L7.75404 10.3532L6.34314 8.93572L12.0132 3.29211L17.6568 8.96219Z" fill="currentColor"/>
</svg>

<svg viewBox="0 0 24 24" fill="none" xmlns="http://www.w3.org/2000/svg" height="1em" width="1em">
  <path d="m17.657 8.962-1.418 1.411-3.255-3.27-.013 13.605-2-.002.013-13.568-3.23 3.215-1.41-1.417 5.67-5.644 5.643 5.67Z" fill="currentColor"/>
</svg>
